svgs/duotone/sausage.svg

<svg xmlns="http://www.w3.org/2000/svg" viewBox="0 0 512 512"><!--! Font Awesome Pro 6.3.0 by @fontawesome - https://fontawesome.com License - https://fontawesome.com/license (Commercial License) Copyright 2023 Fonticons, Inc. --><defs><style>.fa-secondary{opacity:.4}</style></defs><path class="fa-primary" d="M24.14 369C14.54 365.8 4.217 371 1 380.6C.3535 382.5 .0156 384.4 0 386.4v59.25c.0332 10.15 8.289 18.35 18.44 18.32c1.949-.0078 3.85-.3242 5.702-.9395l45.3-15.08c-7.26-20.67-7.26-43.21 0-63.88L24.14 369zM451.4 1C449.5 .3535 447.6 .0156 445.6 0h-59.25c-10.14 .0156-18.34 8.25-18.33 18.39c.0098 1.967 .3301 3.885 .9492 5.753l15.08 45.3c20.67-7.26 43.21-7.26 63.88 0l15.03-45.3C466.2 14.55 460.1 4.232 451.4 1zM383.1 144C375.2 144 368 151.2 368 160c0 114.7-93.31 208-208 208c-8.836 0-16 7.164-16 15.1S151.2 400 160 400c132.3 0 240-107.7 240-240C400 151.2 392.8 144 383.1 144z"/><path class="fa-secondary" d="M416 63.1C362.1 63.1 320 106.1 320 160c0 88.22-71.78 160-160 160c-53.02 0-96 42.98-96 95.1S106.1 512 159.1 512c194.3 .116 351.9-157.3 352-351.6L512 160C512 106.1 469 63.1 416 63.1zM160 400c-8.837 0-16-7.163-16-16C144 375.2 151.2 368 160 368c114.7 0 208-93.31 208-208c0-8.837 7.163-16 15.1-16C392.8 144 400 151.2 400 160C400 292.3 292.3 400 160 400z"/></svg>

<svg xmlns="http://www.w3.org/2000/svg" viewBox="0 0 512 512"><!-- Font Awesome Pro 6.0.0-alpha2 by @fontawesome - https://fontawesome.com License - https://fontawesome.com/license (Commercial License) --><defs><style>.fa-secondary{opacity:.4}</style></defs><path d="M416 64C362.981 64 320 106.981 320 160C320 248.22 248.22 320 160 320C106.981 320 64 362.981 64 416S106.981 512 160 512C354.288 512.116 511.884 354.708 512 160.42C512 160.28 512 160.14 512 160C512 106.981 469.019 64 416 64ZM160 400C151.163 400 144 392.836 144 384S151.163 368 160 368C274.69 368 368 274.69 368 160C368 151.163 375.163 144 384 144S400 151.163 400 160C400 292.34 292.34 400 160 400Z" class="fa-secondary"/><path d="M24.18 369C14.58 365.82 4.217 371.002 1 380.59C0.354 382.453 0.016 384.408 0 386.381V445.619C0.033 455.771 8.289 463.973 18.441 463.939C20.391 463.932 22.328 463.615 24.18 463L69.439 447.92C62.18 427.246 62.18 404.715 69.439 384.039L24.18 369ZM451.41 1C449.547 0.354 447.592 0.016 445.619 0H386.381C376.24 0.016 368.033 8.25 368.051 18.391C368.061 20.357 368.381 22.312 369 24.18L384.08 69.439C404.754 62.18 427.285 62.18 447.961 69.439L462.961 24.17C466.137 14.584 460.977 4.232 451.41 1ZM384 144C375.164 144 368 151.164 368 160C368 274.689 274.689 368 160 368C151.164 368 144 375.164 144 384S151.164 400 160 400C292.34 400 400 292.34 400 160C400 151.164 392.836 144 384 144Z" class="fa-primary"/></svg>
